X: 642
T: Ku lingding
L: 1/8
M: 4/4
K: G
d> e d cA4 [I:setbarnb 1]| 
d> e d AG2F E/ D/ | 
d> e d c B A G F | 
E B, D E/ G/D4 | 
A GA2d e d c | 
B d A D A B A G | 
F E D E/ G/D4 | 
A GA2d e d c | 
B d A D A B A G | 
F E D E/ G/D4 |]

@@@ Tune index: 9516
